app/images/star.svg

<svg width="20" height="20" viewBox="0 0 20 20" fill="none" xmlns="http://www.w3.org/2000/svg">
<path d="M19.566 9.60908C19.9596 9.22866 20.0986 8.67033 19.9288 8.15131C19.7586 7.6323 19.3153 7.2618 18.7706 7.18318L13.9279 6.48547C13.7217 6.45568 13.5435 6.32742 13.4514 6.14197L11.2864 1.79091C11.0433 1.30208 10.5499 0.998291 10 0.998291C9.45054 0.998291 8.95714 1.30208 8.71405 1.79091L6.54863 6.14197C6.45652 6.32742 6.2779 6.45568 6.07165 6.48547L1.229 7.18357C0.684744 7.2618 0.241409 7.6323 0.071203 8.15131C-0.0986021 8.67033 0.0403658 9.22866 0.434041 9.60908L3.93788 12.9956C4.08726 13.1401 4.15574 13.3482 4.1205 13.5515L3.2935 18.3338C3.20058 18.8711 3.41885 19.4036 3.86379 19.7245C4.30832 20.0458 4.88702 20.0875 5.37441 19.8329L9.70524 17.575C9.88987 17.4789 10.1101 17.4789 10.2948 17.575L14.626 19.8329C14.8374 19.9433 15.0665 19.9977 15.2944 19.9977C15.5904 19.9977 15.8851 19.906 16.1366 19.7245C16.5816 19.4036 16.7998 18.8711 16.7069 18.3338L15.8795 13.5519C15.8443 13.3482 15.9127 13.1405 16.0621 12.996L19.566 9.60908ZM15.0906 13.6861L15.9176 18.4681C15.9592 18.7087 15.8651 18.9386 15.6656 19.0824C15.4658 19.2257 15.2171 19.2432 14.9988 19.1304L10.6676 16.8721C10.459 16.7637 10.2291 16.7089 10 16.7089C9.77092 16.7089 9.54145 16.7637 9.33239 16.8725L5.00196 19.1304C4.7829 19.2432 4.5342 19.2257 4.33475 19.0824C4.13531 18.9386 4.0416 18.7091 4.08285 18.4681L4.90985 13.6861C4.98955 13.2247 4.83536 12.7537 4.49735 12.4273L0.993117 9.04043C0.816504 8.86967 0.756431 8.62903 0.832923 8.39672C0.909015 8.16402 1.10005 8.00439 1.34394 7.96904L6.18619 7.27133C6.65356 7.20422 7.05764 6.91354 7.2663 6.49341L9.43171 2.14235C9.54064 1.92314 9.7533 1.7925 9.9996 1.7925C10.2463 1.7925 10.4586 1.92314 10.5679 2.14235L12.7333 6.49341C12.942 6.91354 13.3456 7.20422 13.813 7.27133L18.6557 7.96904C18.8996 8.00439 19.0906 8.16402 19.1667 8.39672C19.2428 8.62903 19.1831 8.86967 19.0065 9.04043L15.5026 12.4269C15.1646 12.7537 15.0105 13.2243 15.0906 13.6861Z" fill="#686868"/>
</svg>

<svg width="20" height="20" fill="none" xmlns="http://www.w3.org/2000/svg"><path d="M19.566 9.61c.394-.381.533-.94.363-1.459a1.422 1.422 0 0 0-1.158-.968l-4.843-.698a.632.632 0 0 1-.477-.343l-2.165-4.351A1.427 1.427 0 0 0 10 .998c-.55 0-1.043.304-1.286.793L6.55 6.142a.633.633 0 0 1-.477.343l-4.843.699a1.421 1.421 0 0 0-1.158.967c-.17.52-.03 1.078.363 1.458l3.504 3.387c.15.144.218.352.182.556l-.827 4.782c-.092.537.126 1.07.57 1.39a1.432 1.432 0 0 0 1.511.109l4.331-2.258a.639.639 0 0 1 .59 0l4.331 2.258a1.442 1.442 0 0 0 1.51-.108c.446-.321.664-.854.57-1.391l-.826-4.782a.625.625 0 0 1 .182-.556l3.504-3.387zm-4.475 4.076l.827 4.782a.614.614 0 0 1-.252.614.628.628 0 0 1-.667.048l-4.331-2.258a1.45 1.45 0 0 0-1.336 0l-4.33 2.258a.629.629 0 0 1-.667-.048.615.615 0 0 1-.252-.614l.827-4.782a1.415 1.415 0 0 0-.413-1.259L.993 9.04a.612.612 0 0 1-.16-.643.62.62 0 0 1 .51-.428l4.843-.698a1.432 1.432 0 0 0 1.08-.778l2.166-4.35a.622.622 0 0 1 .568-.35c.246 0 .459.13.568.35l2.165 4.35c.209.42.613.711 1.08.778l4.843.698a.62.62 0 0 1 .51.428.613.613 0 0 1-.16.643l-3.503 3.387a1.414 1.414 0 0 0-.412 1.26z" fill="#686868"/></svg>
